X:1
T:Title
%%score { ( 1 3 4 ) | 2 }
L:1/8
Q:1/4=92
M:4/4
K:Bb
V:1 treble nm="Grand Piano"
V:3 treble 
V:4 treble 
V:2 bass 
V:1
 G>^F G>F G2 E2 | [GB]>[^FA] [GB]>[FA] [GB]4 | G>^F G>F G2 E2 | G>G F>E [DF]4 | G>^F G>F G2 E2 | %5
w: E.~D.~K. * * * * *|||||
 [GB]>[^FA] [GB]>[FA] [GB]4 | [E_Ac]>[Ece] [EBd]>[EAc] [EGB]2 [G,E]2 | %7
w: ||
 [B,EG]>[B,F_A] [B,EG]>[_A,DF] [G,E]4 | B6 z2 | G4 z4 | F6 z2 | G2 G2 z4 | %12
w: |||||
 B->[GB-] [GB-][GB-] [GB]>B c>B | G4 z4 | F6 z2 | E6 z2 |] %16
w: ||||
V:2
 [E,B,E]>[E,A,E] [E,B,E]>[E,A,E] [E,B,E]2 [E,G,]2 | [E,E]>[E,E] [E,E]>[E,E] [E,E]4 | %2
 [E,B,E]>[E,A,E] [E,B,E]>[E,A,E] [E,B,E]2 [E,G,]2 | [E,B,E]>[E,B,E] [E,_A,B,]>[E,G,B,] [B,,B,]4 | %4
 [E,B,E]>[E,A,E] [E,B,E]>[E,A,E] [E,B,E]2 [E,G,]2 | [E,E]>[E,E] [E,E]>[E,E] [E,E]4 | %6
 _A,>A, A,>A, E,2 E,2 | B,,>B,, B,,>B,, E,4 | [E,E]>[E,E] [E,E][E,E] [E,E][E,E] z2 | %9
 [E,B,E]>[E,B,] [E,B,][E,B,] [E,G,][E,G,] z2 | %10
 [B,,B,]>[B,,B,] [B,,B,][B,,B,] [B,,B,][B,,B,][B,,B,][B,,B,] | %11
 [E,B,E]>[E,B,] [E,B,E]>[E,B,] [E,B,E]2 z2 | [E,E]>[E,E] [E,E][E,E] [E,E][E,E] z2 | %13
 [E,B,E]>[E,B,] [E,B,][E,B,] [E,G,][E,G,] z2 | [B,,B,]>[B,,B,] [B,,B,][B,,B,] [B,,B,][B,,B,] z2 | %15
 [E,G,B,]2 [E,_A,]>[E,A,] [E,G,]2 z2 |] %16
V:3
 x8 | x8 | x8 | x8 | x8 | x8 | x8 | x8 | G>G GG G[GB] c>B | z z/ E/ EE EE z2 | D>D DD .D>_A G>F | %11
 z z/ E/ z z/ E/ G2 z2 | G2 z2 z G z2 | z z/ E/ EE EE z2 | D>D DD .D>_A G>F | z2 C>C B,2 z2 |] %16
V:4
 x8 | x8 | x8 | x8 | x8 | x8 | x8 | x8 | x8 | x8 | z4 z DDD | x8 | x8 | x8 | z4 z D z2 | x8 |] %16

